X:37
T:Copenhagen Waltz. WHG.036
R:waltz
S:W.H.Giles MS,Bampton,Oxfordshire,1839p34, p35
O:England
H:donated by Mrs W.R.Kettlewell to VWML,Apr 1927.
A:Bampton, Oxfordshire
Z:PJHeadford – VMP 2009
M:3/8
L:1/16
Q:3/8=50
K:D
(f<a)|(g<b) (f<a) (e<g)|(d<f) A2 (d<f)|\
(e<g) A2 (c<e)|(d<f) A2 (f<a)|
(g<b) (f<a) (e<g)|(d<f) A2 (d<f)|\
(e<g) A2 (c<e)|d4||
(d<f)|(c<e) A2 (c<e)|(d<f) A2 (d<f)|\
(c<d) A2 (c<d)|d4 (f<a)|
(g<b) (f<a) (e<g)|(d<f) A2 (d<f)|\
(e<g) A2 (c<e)|d4||
a2|(b2a2f2)|d4 a2|(b2a2f2)|e4 a2|\
(b2a2f2)|dcd faf|ede fge|d4|]

